docs/img/remember.svg

<svg width="138" height="137" viewBox="0 0 138 137" fill="none" xmlns="http://www.w3.org/2000/svg">
<mask id="mask0_0_1915" style="mask-type:alpha" maskUnits="userSpaceOnUse" x="2" y="2" width="134" height="135">
<path fill-rule="evenodd" clip-rule="evenodd" d="M135.946 78.9857L59.1689 2.20854L2.08496 59.2925L78.8621 136.07L135.946 78.9857Z" fill="white"/>
</mask>
<g mask="url(#mask0_0_1915)">
<path fill-rule="evenodd" clip-rule="evenodd" d="M133.733 76.7722C134.956 77.9948 134.957 79.9749 133.734 81.1976L116.145 98.7866L114.818 97.4591L98.573 113.704L99.8816 115.05L81.0744 133.858C79.8528 135.079 77.8716 135.079 76.6489 133.856L36.9886 94.1961L39.6425 91.5422L23.5461 75.4458L20.8375 78.045L4.29823 61.5057C3.07669 60.2842 3.07558 58.3019 4.29711 57.0803L50.7613 10.6162L67.5772 10.6162L82.992 26.031L80.2176 28.7875L84.0339 32.6038L86.8262 29.8651L133.733 76.7722Z" fill="#719E1B"/>
</g>
<mask id="mask1_0_1915" style="mask-type:alpha" maskUnits="userSpaceOnUse" x="2" y="2" width="134" height="135">
<path fill-rule="evenodd" clip-rule="evenodd" d="M78.8622 136.07L135.946 78.9859L59.1692 2.20869L2.08496 59.293L78.8622 136.07Z" fill="white"/>
</mask>
<g mask="url(#mask1_0_1915)">
<path fill-rule="evenodd" clip-rule="evenodd" d="M22.8833 60.6201L27.7505 55.7529L16.6875 44.6899L11.8203 49.5571L22.8833 60.6201Z" fill="#FED55D"/>
<path fill-rule="evenodd" clip-rule="evenodd" d="M30.1128 53.3916L34.98 48.5244L23.917 37.4614L19.0498 42.3286L30.1128 53.3916Z" fill="#FED55D"/>
<path fill-rule="evenodd" clip-rule="evenodd" d="M37.4878 46.0166L42.355 41.1494L31.292 30.0864L26.4248 34.9536L37.4878 46.0166Z" fill="#FED55D"/>
<path fill-rule="evenodd" clip-rule="evenodd" d="M44.7886 38.7153L49.6558 33.8482L38.5928 22.7852L33.7256 27.6523L44.7886 38.7153Z" fill="#FED55D"/>
<path fill-rule="evenodd" clip-rule="evenodd" d="M52.1636 31.3403L57.0308 26.4732L45.9678 15.4102L41.1006 20.2773L52.1636 31.3403Z" fill="#FED55D"/>
<path fill-rule="evenodd" clip-rule="evenodd" d="M78.8632 119.547L120.163 78.2471L71.7817 29.8653L30.4814 71.1655L78.8632 119.547Z" fill="#85C12F"/>
</g>
</svg>

<svg width="138" height="137" viewBox="0 0 138 137" fill="none" xmlns="http://www.w3.org/2000/svg"><mask id="mask0_0_1915" style="mask-type:alpha" maskUnits="userSpaceOnUse" x="2" y="2" width="134" height="135"><path fill-rule="evenodd" clip-rule="evenodd" d="M135.946 78.986L59.169 2.209 2.085 59.292l76.777 76.778 57.084-57.084z" fill="#fff"/></mask><g mask="url(#mask0_0_1915)"><path fill-rule="evenodd" clip-rule="evenodd" d="M133.733 76.772a3.127 3.127 0 01.001 4.426l-17.589 17.589-1.327-1.328-16.245 16.245 1.309 1.346-18.808 18.808a3.13 3.13 0 01-4.425-.002l-39.66-39.66 2.654-2.654-16.097-16.096-2.709 2.599-16.539-16.54a3.13 3.13 0 010-4.425L50.76 10.616h16.816l15.415 15.415-2.774 2.757 3.816 3.816 2.792-2.739 46.907 46.907z" fill="#719E1B"/></g><mask id="mask1_0_1915" style="mask-type:alpha" maskUnits="userSpaceOnUse" x="2" y="2" width="134" height="135"><path fill-rule="evenodd" clip-rule="evenodd" d="M78.862 136.07l57.084-57.084L59.169 2.209 2.085 59.293l76.777 76.777z" fill="#fff"/></mask><g mask="url(#mask1_0_1915)" fill-rule="evenodd" clip-rule="evenodd"><path d="M22.883 60.62l4.867-4.867L16.688 44.69l-4.867 4.867L22.883 60.62zm7.23-7.228l4.867-4.868-11.063-11.063-4.867 4.868 11.063 11.063zm7.375-7.375l4.867-4.868-11.063-11.063-4.867 4.868 11.063 11.063zm7.301-7.302l4.867-4.867-11.063-11.063-4.867 4.867 11.063 11.063zm7.375-7.375l4.867-4.867L45.968 15.41 41.1 20.277 52.164 31.34z" fill="#FED55D"/><path d="M78.863 119.547l41.3-41.3-48.381-48.382-41.3 41.3 48.381 48.382z" fill="#85C12F"/></g></svg>
